X:1
T:Title
%%score { ( 1 4 ) | ( 2 3 ) }
L:1/8
Q:1/4=100
M:4/4
K:Ab
V:1 treble nm="Grand Piano"
V:4 treble 
V:2 bass 
V:3 bass 
V:1
 E2 FG A2 B2 | [Fd]2 [Ec]2 [DB]2 [EA]2 | [DF]4 [DE]4 | [Cc]8[K:bass] | B2 B2 e2 [Ad]2 | %5
w: Walter~Henry~Hall * * * *|||||
 [CGc]2 [CGB]2 [CFA]2 [B,EG]2 | [A,F]2 [=A,EF]2 [Dd]2 [Ec]2 | [FB]2 [FA]2 [EG]2 z B, | E2 FG ABcd | %9
w: ||||
 [Fe]4 z4 | A4 G4 | [A,CA]8 |] %12
w: |||
V:2
 [A,C]2 [G,B,E]2 [F,A,C]2 [E,G,E]2 | A,2- [A,,A,]2 [B,,F,]2 [C,A,]2 | [D,A,]4 [E,G,]4 | A,8 | %4
 [A,B,=D]2 [F,A,D]2 [G,E]2 A,B, | =E,2 E,2 F,2 C,2 | D,2 C,2 [B,,B,]2 [C,A,]2 | %7
 [D,F,]2 [=D,B,]2 [E,B,]2 [F,A,]G, | [A,C]2 [G,B,E]2 [F,A,C]2 [E,A,]2 | A,2 z2 [D,B,]2 D,2 | %10
 z2 C2 [CE]2 B,2 | A,,8 |] %12
V:3
 x8 | D,2 z2 z4 | x8 | A,,4 z4 | z4 z2 F,2 | x8 | x8 | x8 | x8 | D,4 z4 | E,4 E,4 | x8 |] %12
V:4
 x8 | x8 | x8 | z4[K:bass] C,2 E,2 | x8 | x8 | x8 | z4 z2 [DF]2 | z4 z2 _G2 | %9
 z2 =A,2 [Fd]2 [DFB]2 | [DF]2 E2 z2 D2 | x8 |] %12

